src/svg/16/cancel_16.svg

<?xml version="1.0" encoding="UTF-8"?>
<svg width="16px" height="16px" viewBox="0 0 16 16" version="1.1" xmlns="http://www.w3.org/2000/svg" xmlns:xlink="http://www.w3.org/1999/xlink">
    <!-- Generator: Sketch 50.2 (55047) - http://www.bohemiancoding.com/sketch -->
    <title>cancel_16</title>
    <desc>Created with Sketch.</desc>
    <defs></defs>
    <g id="Page-2" stroke="none" stroke-width="1" fill="none" fill-rule="evenodd">
        <g id="cancel_16">
            <rect id="Rectangle" x="0" y="0" width="16" height="16"></rect>
            <path d="M8,6.72720779 L11.46361,3.26359779 C11.8150819,2.91212593 12.3849303,2.91212593 12.7364022,3.26359779 C13.0878741,3.61506966 13.0878741,4.18491814 12.7364022,4.53639 L9.27279221,8 L12.7364022,11.46361 C13.0878741,11.8150819 13.0878741,12.3849303 12.7364022,12.7364022 C12.3849303,13.0878741 11.8150819,13.0878741 11.46361,12.7364022 L8,9.27279221 L4.53639,12.7364022 C4.18491814,13.0878741 3.61506966,13.0878741 3.26359779,12.7364022 C2.91212593,12.3849303 2.91212593,11.8150819 3.26359779,11.46361 L6.72720779,8 L3.26359779,4.53639 C2.91212593,4.18491814 2.91212593,3.61506966 3.26359779,3.26359779 C3.61506966,2.91212593 4.18491814,2.91212593 4.53639,3.26359779 L8,6.72720779 Z" id="Mask" fill="currentColor" fill-rule="nonzero"></path>
        </g>
    </g>
</svg>

<svg xmlns="http://www.w3.org/2000/svg" width="16" height="16" fill="none" viewBox="0 0 16 16"><path fill="currentColor" d="M12.7364 3.2636a.9.9 0 0 1 0 1.2728L9.273 8l3.4634 3.4636c.3222.3222.349.8279.0806 1.1806l-.0806.0922a.9.9 0 0 1-1.2728 0L8 9.273l-3.4636 3.4634a.9.9 0 0 1-1.2728-1.2728L6.727 8 3.2636 4.5364a.9002.9002 0 0 1-.0805-1.1806l.0805-.0922a.9.9 0 0 1 1.2728 0L8 6.727l3.4636-3.4634a.9.9 0 0 1 1.2728 0Z"/></svg>
